X:1
T:Bartimaeus, 87.87
T:Daniel Read, 1804
T:Bartimaeus, 87.87
T:Public Domain
C:Daniel Read, 1804
Z:Public Domain
%%score ( 1 2 ) ( 3 4 )
L:1/8
M:4/4
K:Eb
V:1 treble 
V:2 treble 
V:3 bass 
V:4 bass 
V:1
 E2 [EF]2 [EG]2 [DF]2 | [EB]3 [EG] [DF]2 E2 | [EB]2 (cd) [Ee]2 [Ec]2 | [FB]2 [EG]2 [DF]4 | %4
 [EB]2 ([Gc][Fd]) [Ee]2 [Ec]2 | [DB]2 [EG]2 [DF]2 E2 | [EG]2 [DF]2 [EB]2 (cA) | [EG]2 [DF]2 E4 |] %8
V:2
 E2 x6 | x6 E2 | x2 E2 x4 | x8 | x8 | x6 E2 | x6 E2 | x4 E4 |] %8
V:3
 [E,G,]2 [E,A,]2 [E,B,]2 [A,B,]2 | [G,B,]3 [E,B,] [B,,A,]2 [E,G,]2 | %2
 [E,G,]2 (A,B,) [E,C]2 [E,A,]2 | [D,B,]2 [E,B,]2 [B,,B,]4 | [E,G,]2 (E,D,) [C,G,]2 [A,,A,]2 | %5
 [B,,F,]2 [B,,G,]2 [=B,,A,]2 [C,G,]2 | [B,,B,]2 [A,,B,]2 [G,,B,]2 (A,C) | %7
 [B,,B,]2 [B,,A,]2 [E,G,]4 |] %8
V:4
 x8 | x8 | x2 E,2 x4 | x8 | x2 G,2 x4 | x8 | x6 A,,2 | x8 |] %8

